X: 2
T: Cloch Na Ceithre Mhile
R: reel
M: 4/4
L: 1/8
K: Ador
A,2A,A, EA,A,E|A,E=FE DCB,A,|G,2DG, B,G,DB,|G,B,~B,2 DB,G,B,|A,2EA, CEAB|c2Bc A2AB|c2BG AGEA|1GEDG EB,DB,:|2GEDG EAAG||A2cA eA~A2|A,B,CD EB,DB,|G,2DG, B,G,DB,|G,B,~B,2 DB,G,B,|A,EED EFGB|AGED EGAB|c2cB ABcA|GEDG EA,A,B|A2cA eA~A2|A,B,CD EB,DB,|G,2DG, B,G,GA|BdAF GEDB,|A,EED EFGB|AGED EGAB|c2cB ABcA|GEDG EB,DB,|


Tune 989	Setting 14193

